assets/img/twitter-solo.svg

<svg height="18" viewBox="0 0 18 18" width="18" xmlns="http://www.w3.org/2000/svg"><path d="m15 5.2785c-.4415.196-.916.328-1.414.3875.5085-.3045.899-.787 1.0825-1.362-.4755.282-1.0025.487-1.5635.5975-.4485-.4785-1.089-.7775-1.797-.7775-1.5895 0-2.7575 1.483-2.3985 3.0225-2.0455-.1025-3.8595-1.0825-5.074-2.572-.645 1.1065-.3345 2.554.7615 3.287-.403-.013-.783-.1235-1.1145-.308-.027 1.1405.7905 2.2075 1.9745 2.445-.3465.094-.726.116-1.112.042.313.978 1.222 1.6895 2.3 1.7095-1.035.8115-2.339 1.174-3.645 1.02 1.0895.6985 2.384 1.106 3.774 1.106 4.571 0 7.1535-3.8605 6.9975-7.323.481-.3475.8985-.781 1.2285-1.2745z"/><path d="m0 0h18v18h-18z" fill="none"/></svg>

<svg class="twitter" width="18px" height="18px" viewBox="0 0 18 18" version="1.1" xmlns="http://www.w3.org/2000/svg" xmlns:xlink="http://www.w3.org/1999/xlink">
    <title>Twitter</title>
    <path d="M15,5.2785 C14.5585,5.4745 14.084,5.6065 13.586,5.666 C14.0945,5.3615 14.485,4.879 14.6685,4.304 C14.193,4.586 13.666,4.791 13.105,4.9015 C12.6565,4.423 12.016,4.124 11.308,4.124 C9.7185,4.124 8.5505,5.607 8.9095,7.1465 C6.864,7.044 5.05,6.064 3.8355,4.5745 C3.1905,5.681 3.501,7.1285 4.597,7.8615 C4.194,7.8485 3.814,7.738 3.4825,7.5535 C3.4555,8.694 4.273,9.761 5.457,9.9985 C5.1105,10.0925 4.731,10.1145 4.345,10.0405 C4.658,11.0185 5.567,11.73 6.645,11.75 C5.61,12.5615 4.306,12.924 3,12.77 C4.0895,13.4685 5.384,13.876 6.774,13.876 C11.345,13.876 13.9275,10.0155 13.7715,6.553 C14.2525,6.2055 14.67,5.772 15,5.2785 Z" id="Shape" fill="#000000"></path>
    <rect id="Rectangle" fill="none" x="0" y="0" width="18" height="18"></rect>
</svg>
